X:1
T:G Major               Stephen Jenks, 1799
T:Mr. Phelps, ante 1799                  87. 87.
T:Genius
T:Transcribed from The Musical Harmonist, 1800.
%%score [ 1 2 3 4 ]
L:1/8
Q:1/4=110
M:6/8
K:G
V:1 treble nm="Voice"
V:2 treble nm="Voice"
V:3 treble-8 nm="Tenor"
V:4 bass nm="Bass"
V:1
"^1. Now be still, ye boisterous passions,   Every soul be hushed in peace;       Look, your goddess takes her station,   Mark  the  beauties  of  her  face.        of  her  face." B2 c d2 d | %1
 e2 d d2 B || B2 c B2 B | e2 d d2 z |: B2 d e2 f | g2 e d2 B || B2 B e2 e |1 d2 d d3 :|2 d2 d d3- | %9
 d6 |] %10
V:2
"^2. From her lips, in sounds melodious,  Gen –tle  accents  sweetly  flow;         Lis –ten  then,  Columbians,  listen;  Mark her words she speaks to you.      speaks to you." G2 A G2 E | %1
 E2 G F2 F || B2 G G2 E | G2 B A2 z |: G2 G G2 F | E2 E G2 A || B2 G E2 B,/C/ |1 D2 F G3 :|2 %8
 D2 F G3- | G6 |] %10
V:3
"^3.  Hail,  Columbia!   hap–py  nation,       If your happiness you know;          While  you  follow  af – ter vir–tue,  And  the  paths  of  peace  pursue.        peace  pur–sue." d2 c B2 G | %1
 c2 B A2 D || G2 A B2 G | c2 B A2 z |: G2 A B2 A | B2 c d2 B || e2 f g2 e/c/ |1 B2 A G3 :|2 %8
 B2 A G3- | G6 |] %10
V:4
 G,2 A,"^4. Wretched Europe ruin threatens,\nMangled bodies strew the plains;\nParents, children, friends and brothers\nBy each other's hands are slain. \n5. Listen, then, Columbians, listen,\nWhile you weep her hapless fall;\nWhile you mourn her dreadful miseries,\nShun her crimes, the cause of all.\n6. Haughty tyrants, fed by plunder,\nMurders, robberies, thefts and lies,\nInjured widows, weeping orphans,\nCall for vengeance from the skies." G,2 E, | %1
 C,2 G,, D,2 D, || E,2 F, G,2 E, | C,2 G,, D,2 z |: %4
 G,2 F,"^7. Then be wise, ye sons of freedom,\nProve your worth, your wisdom prove;\nBanish vice and practice virtue,\nCherish honor, peace, and love.\n8. Then fair science long shall flourish,\nTruth and love go hand in hand;\nAll the graces joined in concert\nBless this ever happy land.\n9. Distant kings shall see thy glory,\nRapt in wonder at the view;\nListen then, Columbians, listen;\nMark my words I speak to you." E,2 F, | %5
 G,2 A, B,2 D || B,2 G, E,2 C, |1 D,2 D, G,,3 :|2 D,2 D, G,,3- | G,,6 |] %10

